X: 281
T:Pressed for Time
M:C|
L:1/8
C:Gordon Duncan
R:reel
D:Flook: Rubai
Z:Devin McCabe
K:AMix
GAgG AfGA|eGAe GAeA|G~A3 d2cA|G~A3 d2cA|
!GAgG AfGA|eGAe GAeA|c~A3 dAc~A-|A2eA ez3:|
!:GAdA cAGA-|A2dA c~A3|cd d/2d/2d ed d/2d/2d|effe az2f|
!e~A3 BAe~A-|A2ez d2cA|G~A3 dAc~A-|1A2eA ez3:|2A2e2 z G B/2c/2d||
!~g3f geef|~g3a geeg|e~f2g fedB|dBde ~f2dB|
!e~A3 GAeA-|A2ez d2cA|G~A3 dAc~A-|A2e2 z G B/2c/2d|
!~g3f geef|~g3a geeg|e~f2g fedB|dBde ~f2dB|
!e~A3 GAeA-|A2ez d2cA|G~A3 dAc~A-|A2e2 z G B/2c/2d|
!~g3f geef|~g3a geeg|e~f2g fedB|dBde ~f2dB|
!eaae a2ea|aea2 efgf|eAae a2zf|gfdA B/2c/2d eA|
!~g3f geef|~g3a geeg|e~f2g fedB|dBde ~f2dB|
!e~A3 GAeA-|A2ez d2cA|G~A3 dAc~A-|A2eA ez3||
